X: 29314
T: New Year Dance
R: waltz
M: 3/4
K: Dmajor
A2|d2 f2 f2|(3 efg e2 c2|d6|A2 F2 D2|G2 A2 B2|c6|
d2 d2 A2|B4 B2|A3 F A2|(3AGF G4|F3 D F2|E3 E E2|
D2 A,2 A,2|F2 E2 DC|D2 A2 A2||B2 A4|
F2 E2 D2|(3 dcB cd A2|D2 G4|A2 Hd2||

